X:0112
T:Merry Lads of Ayr
P:The Merry Lads of Ayr
C:John Riddell (Bremner 1757)
R:Reel (8x32)
B:RSCDS 1-12
Z:Anselm Lingnau <anselm@strathspey.org>
M:C
L:1/8
K:C
|:f|"C"edcB cGGf|edce "G7"f2gf|"C"edcB cGGc|"F"A/B/c "C"GE "G7"D2 Df|
    "C"edcB cGGf|edce "G7"f2gf|"C"edcB cGGc|"F"A/B/c "C"GE "G7"D2 D||
  d|"C"c2ga "(G)"gede|"C"ccga "(G)"g2ed|"C"cega gece|"F"fa"C"ge "G"d2 de|
    "C"c2ga "(G)"gede|"C"ccga "(G)"g2ed|\
                              "Am"cega "C"gece|1 "Dm"fa"C"ge "F"de"G7"fg:|\
                                              [2 "Dm"fa"G7"ge "C"[c2E2] z|]

